X:1034
M:C
L:1/8
Q:1/4=120
K:D
f|d<AF<A D<Ad>B|A<DA>F E<ee>f|d<AFA  EA`Df |d<BA>F A<dd>f|
  dA`FA  D<Ad>B|A<DAF  E>gfe |fg`ef  d>BA>F|A>Bd>e f<dd |]

